dist/svg/u1F97B.svg

<?xml version="1.0" encoding="UTF-8"?><svg id="a" xmlns="http://www.w3.org/2000/svg" viewBox="0 0 40 40"><g><path d="M25.558,10.499l3.125-1.714-.257-2.184c-.202-1.715-1.336-3.177-2.946-3.8l-3.369-1.302-.067,.174c-.72,1.877-3.375,1.877-4.096,0h0c-.037-.096-.145-.144-.24-.107l-3.196,1.234c-1.611,.622-2.745,2.085-2.946,3.8l-.249,2.114,3.117,1.784c.478,2.905,.175,5.885-.878,8.636-.609,1.591-.686,3.338-.377,5.014l2.646,14.352h8.342l2.646-14.352c.309-1.676,.232-3.422-.377-5.014-1.053-2.75-1.356-5.73-.878-8.635Z" fill="#ff9000"/><path d="M22.11,1.5l-7.466,12.247-1.057,3.55c-.914,3.071-1.004,6.329-.261,9.445l1.464,6.141L25.48,2.802l-3.369-1.302Z" fill="#e32939"/><path d="M22.11,1.5l-7.557,7.946c-.432,.454-.611,1.094-.477,1.706l.567,2.595L22.934,1.818l-.824-.318Z" fill="#ffd06c"/></g><rect width="40" height="40" fill="none"/></svg>

<svg id="Layer_1" data-name="Layer 1" xmlns="http://www.w3.org/2000/svg" viewBox="0 0 40 40"><defs><style>.cls-1{fill:#ff9000;}.cls-2{fill:#e32939;}.cls-3{fill:#ffd06c;}.cls-4{fill:none;}</style></defs><path class="cls-1" d="M25.558,10.5l3.125-1.714L28.426,6.6A4.654,4.654,0,0,0,25.48,2.8L22.11,1.5l-.066.174a2.194,2.194,0,0,1-4.1,0h0a.185.185,0,0,0-.24-.107L14.512,2.8a4.656,4.656,0,0,0-2.947,3.8l-.248,2.114L14.434,10.5a16.612,16.612,0,0,1-.878,8.636,9.3,9.3,0,0,0-.377,5.013L15.825,38.5h8.342l2.646-14.352a9.312,9.312,0,0,0-.377-5.013A16.612,16.612,0,0,1,25.558,10.5Z"/><path class="cls-2" d="M22.11,1.5,14.644,13.747,13.587,17.3a18.263,18.263,0,0,0-.261,9.445l1.463,6.141L25.48,2.8Z"/><path class="cls-3" d="M22.11,1.5,14.553,9.446a1.889,1.889,0,0,0-.476,1.706l.567,2.6,8.29-11.929Z"/><rect class="cls-4" width="40" height="40"/></svg>
